src/icons/command-calendar.svg

<svg enable-background="new 0 0 14 14" viewBox="0 0 14 14" xmlns="http://www.w3.org/2000/svg"><path d="m10.9 3.1c.5 0 .8-.3.8-.8v-1.5c0-.4-.3-.8-.8-.8s-.8.4-.8.8v1.6c0 .4.3.7.8.7zm-7.8 0c.5 0 .8-.3.8-.8v-1.5c0-.4-.3-.8-.8-.8s-.8.4-.8.8v1.6c0 .4.3.7.8.7zm10.1-1.5h-.8v.8c0 .9-.7 1.6-1.6 1.6s-1.6-.7-1.6-1.6v-.8h-4.5v.8c0 .9-.7 1.6-1.6 1.6s-1.5-.8-1.5-1.7v-.7h-.8c-.4 0-.8.3-.8.7v10.9c0 .4.4.8.8.8h12.4c.4 0 .8-.4.8-.8v-10.9c0-.4-.4-.7-.8-.7zm-8.5 10.8h-3.1v-3.1h3.1zm0-3.8h-3.1v-3.2h3.1zm3.9 3.8h-3.2v-3.1h3.1v3.1zm0-3.8h-3.2v-3.2h3.1v3.2zm3.8 3.8h-3.1v-3.1h3.1zm0-3.8h-3.1v-3.2h3.1z" fill="#4d5969"/></svg>

<svg viewBox="0 0 14 14" xmlns="http://www.w3.org/2000/svg"><path d="M10.9 3.1c.5 0 .8-.3.8-.8V.8c0-.4-.3-.8-.8-.8s-.8.4-.8.8v1.6c0 .4.3.7.8.7zm-7.8 0c.5 0 .8-.3.8-.8V.8c0-.4-.3-.8-.8-.8s-.8.4-.8.8v1.6c0 .4.3.7.8.7zm10.1-1.5h-.8v.8c0 .9-.7 1.6-1.6 1.6s-1.6-.7-1.6-1.6v-.8H4.7v.8C4.7 3.3 4 4 3.1 4s-1.5-.8-1.5-1.7v-.7H.8c-.4 0-.8.3-.8.7v10.9c0 .4.4.8.8.8h12.4c.4 0 .8-.4.8-.8V2.3c0-.4-.4-.7-.8-.7zM4.7 12.4H1.6V9.3h3.1zm0-3.8H1.6V5.4h3.1zm3.9 3.8H5.4V9.3h3.1v3.1zm0-3.8H5.4V5.4h3.1v3.2zm3.8 3.8H9.3V9.3h3.1zm0-3.8H9.3V5.4h3.1z" fill="#4d5969"/></svg>
